X:3720
T:Liz Carroll's
O:england
M:C|
L:1/8
C:Liz Carroll
S:Augusta Concert Series, 1983
R:reel
K:A
AB |: c2ef cBAF | EFAB (3cBA ce | fb{c'}b^a b=afg | afec {d}cB{c}Be |
c2ef cBAF | EFAB (3cBA ce | fb{c'}b^a b=afg |1 afeg a3e :|2 afeg a3b |:\
c'2ac' bafg | afea fecB | cefg abaf | ecAB cB{c}Be |
c2ef cBAF | EFAB (3cBA ce | fb{c'}b^a b=afg |1 afeg a3b :|2 afeg a3z |]


